X: 30445
T: Old Walls Of Liscarroll, The
R: jig
M: 6/8
K: Dmixolydian
|:A3 DAD|AGE ABc|AGE cGE|GEA DEG|
A3 DAD|AGE ABc|AGE cGE|D3 DE/F/G:|
Adc ABc|ded dcA|GEE cGE|GEA DE/F/G|
[1 Adc ABc|def dcA|GEE cGE|DED DE/F/G:|
[2 A3 DAD|AGE ABc|AGE cGE|D3 D3||

